icons/solid/phone.svg

<svg width="24" height="24" viewBox="0 0 24 24" fill="none" xmlns="http://www.w3.org/2000/svg">
<path fill-rule="evenodd" clip-rule="evenodd" d="M4 3C3.44772 3 3 3.44772 3 4C3 6.02274 3.42416 8.73381 4.58294 11.3988C5.98312 14.6188 8.47777 17.8187 12.605 19.5935C14.6724 20.4825 17.1206 21 20 21C20.5523 21 21 20.5523 21 20V16C21 15.5411 20.6877 15.1411 20.2425 15.0299L16.2425 14.0299C15.8667 13.9359 15.4704 14.0675 15.2254 14.3676L12.7161 17.4412C9.82223 15.9977 7.9199 13.7056 6.72478 11.2673L9.65079 8.75926C9.93838 8.51275 10.062 8.12493 9.97014 7.75746L8.97014 3.75746C8.85885 3.3123 8.45887 3 8 3H4Z" fill="currentColor"/>
</svg>

<svg width="24" height="24" fill="none" xmlns="http://www.w3.org/2000/svg"><path fill-rule="evenodd" clip-rule="evenodd" d="M4 3a1 1 0 00-1 1c0 2.023.424 4.734 1.583 7.399 1.4 3.22 3.895 6.42 8.022 8.194C14.672 20.483 17.121 21 20 21a1 1 0 001-1v-4a1 1 0 00-.758-.97l-4-1a1 1 0 00-1.017.338l-2.509 3.073c-2.894-1.443-4.796-3.735-5.991-6.174L9.65 8.76a1 1 0 00.32-1.002l-1-4A1 1 0 008 3H4z" fill="currentColor"/></svg>
